webapp/src/assets/svg/defi-icon.svg

<svg height="24" viewBox="0 0 24 24" width="24" xmlns="http://www.w3.org/2000/svg"><g fill="none" fill-rule="evenodd"><circle cx="12" cy="12" fill="#ff00af" fill-rule="nonzero" r="12"/><path d="m13.6625 17.5908333v-11.18166663c2.4070833.71916666 4.1666667 2.95333333 4.1666667 5.59083333s-1.7595834 4.8720833-4.1666667 5.5908333m-1.6666667-13.0908333v6.32125l-.9520833-.95208333-.1216667-2.37625.9929167-2.98875c-.6366667.00666666-1.2516667.0975-1.8404167.25375l-.48041663 1.44458333-1.36166667-.68291667c-.53875.31375-1.03708333.68916667-1.48 1.12291667l2.52208333 1.26375.07375 1.44625-1.44583333-.07416667-1.26416667-2.52166666c-.43333333.44291666-.80916666.94083333-1.12291666 1.48l.68333333 1.36208333-1.44541667.48c-.15583333.58875-.24666666 1.20375-.25333333 1.8404167l2.98916667-.9929167 2.37625.12125.95208333.9525-.95208333.9525-2.37625.12125-2.98916667-.9929167c.00666667.6366667.0975 1.2516667.25333333 1.8404167l1.44541667.48-.68333333 1.3620833c.31375.5391667.68958333 1.0370834 1.12291666 1.48l1.26416667-2.5216666 1.44583333-.0741667-.07375 1.4458333-2.52208333 1.2641667c.44291667.4333333.94125.80875 1.48 1.1229167l1.36166667-.6829167.48041663 1.4445833c.58875.1558334 1.20375.2470834 1.8404167.25375l-.9929167-2.98875.1216667-2.37625.9520833-.9520833v6.32125c4.1420834 0 7.5-3.3579167 7.5-7.5 0-4.14208333-3.3579166-7.5-7.5-7.5" fill="#fff"/></g></svg>

<?xml version="1.0" encoding="UTF-8"?>
<svg width="24px" height="24px" viewBox="0 0 24 24" version="1.1" xmlns="http://www.w3.org/2000/svg" xmlns:xlink="http://www.w3.org/1999/xlink">
    <title>7E1439E4-23DE-42EA-9DC6-B7A4D56F4346</title>
    <g id="DeFiChain-App" stroke="none" stroke-width="1" fill="none" fill-rule="evenodd">
        <g id="swap1" transform="translate(-536.000000, -234.000000)">
            <g id="Group-10" transform="translate(56.000000, 38.000000)">
                <g id="Group-8" transform="translate(224.000000, 0.000000)">
                    <g id="Group-3" transform="translate(32.000000, 144.000000)">
                        <g id="icon-coin-dfi" transform="translate(224.000000, 52.000000)">
                            <circle id="bg" fill="#FF00AF" fill-rule="nonzero" cx="12" cy="12" r="12"></circle>
                            <path d="M13.6625,17.5908333 L13.6625,6.40916667 C16.0695833,7.12833333 17.8291667,9.3625 17.8291667,12 C17.8291667,14.6375 16.0695833,16.8720833 13.6625,17.5908333 M11.9958333,4.5 L11.9958333,10.82125 L11.04375,9.86916667 L10.9220833,7.49291667 L11.915,4.50416667 C11.2783333,4.51083333 10.6633333,4.60166667 10.0745833,4.75791667 L9.59416667,6.2025 L8.2325,5.51958333 C7.69375,5.83333333 7.19541667,6.20875 6.7525,6.6425 L9.27458333,7.90625 L9.34833333,9.3525 L7.9025,9.27833333 L6.63833333,6.75666667 C6.205,7.19958333 5.82916667,7.6975 5.51541667,8.23666667 L6.19875,9.59875 L4.75333333,10.07875 C4.5975,10.6675 4.50666667,11.2825 4.5,11.9191667 L7.48916667,10.92625 L9.86541667,11.0475 L10.8175,12 L9.86541667,12.9525 L7.48916667,13.07375 L4.5,12.0808333 C4.50666667,12.7175 4.5975,13.3325 4.75333333,13.92125 L6.19875,14.40125 L5.51541667,15.7633333 C5.82916667,16.3025 6.205,16.8004167 6.63833333,17.2433333 L7.9025,14.7216667 L9.34833333,14.6475 L9.27458333,16.0933333 L6.7525,17.3575 C7.19541667,17.7908333 7.69375,18.16625 8.2325,18.4804167 L9.59416667,17.7975 L10.0745833,19.2420833 C10.6633333,19.3979167 11.2783333,19.4891667 11.915,19.4958333 L10.9220833,16.5070833 L11.04375,14.1308333 L11.9958333,13.17875 L11.9958333,19.5 C16.1379167,19.5 19.4958333,16.1420833 19.4958333,12 C19.4958333,7.85791667 16.1379167,4.5 11.9958333,4.5" id="icon" fill="#FFFFFF"></path>
                        </g>
                    </g>
                </g>
            </g>
        </g>
    </g>
</svg>
